X:1
T:Jefferson and Liberty
L:1/8
M:6/8
I:linebreak $
K:G
V:1 treble
V:1
 B |"Am" c2 A AGA | E2 A ABc |"G" B2 G GBc | dBG GAB |$
 "Am" d2 A AGA | E2 A A2 e |"C" edc "G"Bcd |"Am"  c2 A A2 B ::$
 |:"Am"  A2 B c2 d | e2 f g3 |"C" e2 f g2 e |"G" dBG GAB |$
 "Am" A2 B c2 d | efg a3 |"C" edc "G"Bcd |"Am"  c2 A A2 B :|
